X:310
T:Serpentiner och Konfetti
T:Reijländer - Serpentiner och Konfetti
R:polka 32 schottische
C:M. Edén
M:2/4
L:1/8
Q: 140
K:C
EGGE FGAF|DFAF E2Cc|Bcdc B2B2|AFAB A2G2|\
EGGE FGAF|
DFAF E2Cc|Bcdc BGBd|decB c4:|\
|:e2e2 f2ef|gfef gceg|a2a2 f3e|
dBdf e2cd|\
e2e2 f2ef|gfef gceg|a2a2 fedB|d2c2 c4:|

